X: 13108
T: Firefly, The
R: jig
M: 6/8
K: Amajor
cEE dEE|cEE BGE|Ace aec|dcd BGE|
cEE dEE|cEE BGE|Ace aec|dBG A2:|
Ace aga|fdf ecA|d2B cBA|EGB dcB|
Ace aga|fdf ecA|d2B cBA|EGB A2:|

